svgs/duotone/club.svg

<svg xmlns="http://www.w3.org/2000/svg" viewBox="0 0 512 512"><!--! Font Awesome Pro 6.4.0 by @fontawesome - https://fontawesome.com License - https://fontawesome.com/license (Commercial License) Copyright 2023 Fonticons, Inc. --><defs><style>.fa-secondary{opacity:.4}</style></defs><path class="fa-primary" d="M256 224c17.7 0 32 14.3 32 32V448h32c17.7 0 32 14.3 32 32s-14.3 32-32 32H192c-17.7 0-32-14.3-32-32s14.3-32 32-32h32V256c0-17.7 14.3-32 32-32z"/><path class="fa-secondary" d="M288 372.7V256c0-17.7-14.3-32-32-32s-32 14.3-32 32V372.7c-23.5 26.6-57.8 43.3-96 43.3C57.3 416 0 358.7 0 288s57.3-128 128-128c1.4 0 2.7 0 4 .1c-2.6-10.2-4-21-4-32.1C128 57.3 185.3 0 256 0s128 57.3 128 128c0 11.1-1.4 21.8-4 32.1c1.3 0 2.7-.1 4-.1c70.7 0 128 57.3 128 128s-57.3 128-128 128c-38.2 0-72.5-16.8-96-43.3z"/></svg>

<svg xmlns="http://www.w3.org/2000/svg" viewBox="0 0 512 512"><!--! Font Awesome Pro 6.3.0 by @fontawesome - https://fontawesome.com License - https://fontawesome.com/license (Commercial License) Copyright 2023 Fonticons, Inc. --><defs><style>.fa-secondary{opacity:.4}</style></defs><path class="fa-primary" d="M256 224C273.7 224 288 238.3 288 256V448H320C337.7 448 352 462.3 352 480C352 497.7 337.7 512 320 512H192C174.3 512 160 497.7 160 480C160 462.3 174.3 448 192 448H224V256C224 238.3 238.3 224 256 224z"/><path class="fa-secondary" d="M288 372.7V256C288 238.3 273.7 224 256 224C238.3 224 224 238.3 224 256V372.7C200.5 399.2 166.2 416 128 416C57.31 416 0 358.7 0 288C0 217.3 57.31 160 128 160C129.4 160 130.7 160 132 160.1C129.4 149.8 128 139.1 128 128C128 57.31 185.3 0 256 0C326.7 0 384 57.31 384 128C384 139.1 382.6 149.8 379.1 160.1C381.3 160 382.6 160 384 160C454.7 160 512 217.3 512 288C512 358.7 454.7 416 384 416C345.8 416 311.5 399.2 288 372.7z"/></svg>
